X:233
T:The Old Violin Waltz
R:waltz
C:Bruce Osborne - Jan. 2003
Z:abc by bosborne@kos.net
M:3/4
L:1/8
K:C
ED|C3 B, CD|E2 G2 cB|A3 F AB|c3 c BA|\
G3 ^F Gc|e2 c2 ce|d3 c BA|G3 F ED|\
C3 B, CD|E2 G2 cB|A3 F AB|c3 c BA|\
G3 ^F Gc|e2 c2 ce|d3 c Bd|c4||\
GF|E2 G2 ce|g3 g ^fg|a3 g ec|G3 E FE|\
D3 C DE|F3 F EF|B^A =A2 G2|E4 GF|\
E2 G2 ce|g3 g ^fg|a3 g ec|G3 E FE|\
D3 C DE|F3 F EF|BA GF DB,|C4||
